svg/uf00cc-starhorse.svg

<svg height="960" style="" width="810" xmlns="http://www.w3.org/2000/svg"><path d="m404.42868-29.999929a575.45121 575.45121 0 00-165.72555 24.553147c-28.48754 102.787682-89.31834 262.995602-112.42559 317.640832-6.14506 14.53214-8.85639 33.09099-.96237 47.10899 94.57598 167.94625 124.91112 308.89932 131.71736 440.3363 7.01248 135.41852 92.66827 190.36056 147.96748 190.36066 55.29922 0 140.95502-54.94218 147.96749-190.36066 6.80627-131.43708 37.14135-272.39005 131.71735-440.3363 7.89399-14.01803 5.18266-32.57688-.96237-47.10899-23.1074-54.64552-83.94527-214.8532-112.43262-317.640832a575.45121 575.45121 0 00-166.28985-24.553147 575.45121 575.45121 0 00-.57133 0zm.57133 188.459349 111.80275 170.99161-111.80275 170.99162-111.80274-170.99162z" style="stroke-width:1.19886"/></svg>

<svg xmlns="http://www.w3.org/2000/svg" width="810" height="960">
    <path d="M404.429-30A575.5 575.5 0 0 0 238.703-5.447C210.216 97.341 149.385 257.55 126.278 312.194c-6.146 14.532-8.857 33.091-.963 47.109 94.576 167.946 124.911 308.9 131.718 440.336C264.045 935.058 349.7 990 405 990s140.955-54.942 147.967-190.36c6.807-131.438 37.142-272.39 131.718-440.337 7.894-14.018 5.183-32.577-.963-47.109-23.107-54.645-83.945-214.853-112.432-317.64A575.5 575.5 0 0 0 405-30zM405 158.46 516.803 329.45 405 500.443 293.197 329.45z" style="stroke-width:1.19886"/>
</svg>
